X: 35100
T: Rolling Waves, The
R: jig
M: 6/8
K: Dmajor
|:F2 E EDE|F2 D D3|F2 E EFA|d3 fdA|
F2 E EDE|F2 D D3|AFE EFA|B3 d3:|
|:ABd e2 f|d2A B2 A|ABd e2 f|d2 A B3|
ABd ede|fdB BAF|AFE EFA|1 B3 d3:|2 d3 fdA||

